X:1
L:1/8
Q:1/4=200
M:4/4
K:D
 FGAG FD D2 | =CA,G,A, CDEG | Ad d2 cded | cAGF E=C C2 | FGAG FD D2 | =CA,G,A, CDEG | Ad d2 cded |1 
 cA (3GFE D2 D2 :|2 cA (3GFE D2 (3ABc |: d2 Ad FdAF | GFGA GE C2 | A,D D2 CDEF | GFGA BABc | 
 d2 Ad FdAF | GFGA GE C2 | A,D D2 CDEG |1 FDEC D2 (3ABc :|
